X: 1
T: The Grand Mira
C: Mickey Gillis, Angus MacDougall
S: From Brenda Stubbert "In Jig Time"
Z: arr. T. Traub 8-21-1996
R: Jig
M: 6/8
K: G
L: 1/8
c |\
"G"B3 BGE | "G"DGB d3 | "C"e3 "G"dBG | "D"c3 cAB |\
"Am"cdc cAF | "D"DFA cBc |1 "D"e3 dBG | "G"B3 Bdc :|2 "D"ded cBA |
"G"G3 G2 g ||\
"G"b3 g3 | "G"ded B2 A | "G"GBd GBd | "Am"c3 cBc |\
"D"a3 f3 | "D"ded B2 c | "Am"ded "D"cBA | "G"B2 c d2 g ||
"G"gba g2 e | "G"ded B2 A | "G"GBd GBd | "Am"c3 cBc |\
"D"a3 f3 | "D"ded B2 c | "Am"ded "D"cBA | "G"G3 G2 |]
